src/assets/images/logo.svg

<svg width="138" height="50" viewBox="0 0 138 50" fill="none" xmlns="http://www.w3.org/2000/svg">
<g clip-path="url(#clip0_404_239)">
<path d="M37.648 49.8077H17.1941C7.73414 49.8077 0 42.1154 0 32.6282V9.61539H43.4646L50.8791 37.0513H39.5655L37.648 49.8077ZM6.39185 16.0256V32.6282C6.39185 38.5897 11.2497 43.4615 17.1941 43.4615H32.151L34.0686 30.7051H42.5058L38.6068 16.0256H6.39185Z" fill="white"/>
<path d="M64.1102 25.3205H70.3103V26.6667H62.3844V9.61539H64.1102V25.3205Z" fill="white"/>
<path d="M74.2733 10.9615V17.3718H80.9208V18.718H74.2733V25.1923H81.6239V26.6026H72.5475V9.61539H81.6239V10.9615H74.2733Z" fill="white"/>
<path d="M97.1561 10.8974C98.4984 11.859 99.3932 13.2051 99.9046 14.8077H98.1149C97.6674 13.6539 96.9643 12.7564 95.9416 12.0513C94.9189 11.3462 93.7045 10.9615 92.2983 10.9615C91.0838 10.9615 89.9972 11.2821 88.9745 11.859C88.0157 12.4359 87.1848 13.2692 86.6735 14.359C86.0982 15.4487 85.8425 16.6667 85.8425 18.141C85.8425 19.6154 86.0982 20.8974 86.6735 21.9872C87.2487 23.0769 88.0157 23.9103 89.0384 24.4872C90.0611 25.0641 91.2117 25.3846 92.49 25.3846C93.6406 25.3846 94.6633 25.1282 95.622 24.6154C96.5808 24.1026 97.3478 23.3974 97.9231 22.4359C98.4984 21.4744 98.8819 20.3205 98.9458 19.0385H91.9148V17.7564H100.352V19.2308C100.224 20.7051 99.8407 21.9872 99.1376 23.141C98.4345 24.2949 97.4757 25.1923 96.3251 25.8974C95.1746 26.5385 93.7684 26.9231 92.2983 26.9231C90.7003 26.9231 89.2941 26.5385 88.0157 25.8333C86.7374 25.1282 85.7786 24.1026 85.0755 22.7564C84.3724 21.4103 84.0528 19.9359 84.0528 18.2692C84.0528 16.6026 84.3724 15.0641 85.0755 13.7821C85.7786 12.4359 86.7374 11.4103 87.9518 10.7051C89.1663 10 90.6364 9.61539 92.2344 9.61539C94.1519 9.48718 95.8138 9.9359 97.1561 10.8974Z" fill="white"/>
<path d="M113.264 22.5H105.529L103.995 26.6667H102.206L108.47 10H110.387L116.651 26.6667H114.798L113.264 22.5ZM112.752 21.1538L109.428 11.9872L105.977 21.1538H112.752Z" fill="white"/>
<path d="M120.678 25.3205H126.878V26.6667H119.016V9.61539H120.742V25.3205H120.678Z" fill="white"/>
<path d="M72.7392 42.5C73.3784 43.2692 73.698 44.1667 73.698 45.2564C73.698 46.6026 73.2506 47.7564 72.2918 48.5898C71.333 49.4231 69.9907 49.8718 68.2649 49.8718H62.3844V32.8205H68.201C69.9268 32.8205 71.2052 33.2051 72.0361 33.9744C72.8671 34.7436 73.3145 35.7692 73.3145 37.0513C73.3145 38.141 72.9949 39.0385 72.4196 39.7436C71.8444 40.3846 71.0773 40.8333 70.1186 41.0898C71.2691 41.218 72.1 41.7308 72.7392 42.5ZM64.1102 40.3846H68.0093C69.2237 40.3846 70.1186 40.1282 70.6938 39.5513C71.333 38.9744 71.6526 38.2051 71.6526 37.2436C71.6526 36.2821 71.333 35.5128 70.7578 35C70.1186 34.4231 69.2237 34.1667 67.9453 34.1667H64.1102V40.3846ZM70.9495 47.5C71.6526 46.9231 72.0361 46.0898 72.0361 45.0641C72.0361 44.0385 71.6526 43.2051 70.9495 42.6282C70.2464 42.0513 69.2237 41.7308 67.9453 41.7308H64.1102V48.3974H68.0093C69.2876 48.3974 70.2464 48.0769 70.9495 47.5Z" fill="white"/>
<path d="M85.7786 49.8077L81.1125 42.6923H78.364V49.8077H76.6382V32.8205H81.8156C83.7332 32.8205 85.1394 33.2692 86.0982 34.1667C87.057 35.0641 87.5044 36.2821 87.5044 37.8205C87.5044 39.2308 87.1209 40.3846 86.2899 41.218C85.5229 42.0513 84.3724 42.5641 82.8383 42.6923L87.6322 49.8718H85.7786V49.8077ZM78.364 41.4744H81.7517C84.5002 41.4744 85.8425 40.3205 85.8425 37.9487C85.8425 35.5128 84.5002 34.2949 81.7517 34.2949H78.364V41.4744Z" fill="white"/>
<path d="M100.16 45.7051H92.4261L90.8921 49.8718H89.1024L95.3664 33.2051H97.2839L103.548 49.8718H101.694L100.16 45.7051ZM99.6489 44.359L96.3251 35.1923L92.9375 44.359H99.6489Z" fill="white"/>
<path d="M107.575 32.8205V49.8718H105.849V32.8205H107.575Z" fill="white"/>
<path d="M123.938 49.8077H122.212L112.944 35.5769V49.8077H111.218V32.8205H112.944L122.212 47.0513V32.8205H123.938V49.8077Z" fill="white"/>
<path d="M137.425 47.6923C137.041 48.3974 136.53 48.9103 135.763 49.359C134.996 49.8077 134.037 50 132.95 50C131.864 50 130.905 49.8077 130.01 49.4231C129.179 49.0385 128.476 48.4615 127.965 47.7564C127.453 47.0513 127.134 46.2821 127.07 45.3846H128.86C128.924 45.8974 129.115 46.4103 129.435 46.859C129.755 47.3718 130.202 47.7564 130.777 48.0769C131.352 48.3974 132.056 48.5897 132.887 48.5897C133.973 48.5897 134.804 48.2692 135.379 47.6923C135.955 47.1154 136.21 46.4103 136.21 45.5128C136.21 44.7436 136.019 44.1667 135.635 43.6538C135.252 43.2051 134.804 42.8205 134.229 42.5641C133.654 42.3077 132.887 42.0513 131.928 41.7308C130.841 41.4103 130.01 41.0897 129.371 40.7692C128.732 40.4487 128.157 40 127.709 39.359C127.262 38.7179 127.006 37.9487 127.006 36.9231C127.006 35.641 127.453 34.6154 128.348 33.7821C129.243 32.9487 130.458 32.5641 132.056 32.5641C133.654 32.5641 134.932 32.9487 135.891 33.7179C136.849 34.4872 137.361 35.5128 137.553 36.6667H135.763C135.635 35.9615 135.252 35.3205 134.612 34.7436C133.973 34.1667 133.142 33.9103 132.056 33.9103C131.033 33.9103 130.266 34.1667 129.691 34.6795C129.115 35.1923 128.796 35.8974 128.796 36.859C128.796 37.5641 128.988 38.141 129.371 38.6538C129.755 39.1026 130.202 39.4231 130.713 39.6795C131.225 39.9359 131.992 40.1923 132.887 40.5128C133.973 40.8333 134.804 41.1538 135.507 41.4744C136.146 41.7949 136.722 42.3077 137.233 42.9487C137.68 43.5897 137.936 44.4231 137.936 45.5128C138 46.2821 137.808 46.9872 137.425 47.6923Z" fill="white"/>
<path d="M43.4646 0H0V6.41026H43.4646V0Z" fill="white"/>
</g>
<defs>
<clipPath id="clip0_404_239">
<rect width="138" height="50" fill="white"/>
</clipPath>
</defs>
</svg>

<svg xmlns="http://www.w3.org/2000/svg" class="logo-svg">
  <path class="rest-of-logo" d="M37.648 49.808H17.194C7.734 49.808 0 42.115 0 32.628V9.615h43.465l7.414 27.436H39.566l-1.918 12.757ZM6.392 16.026v16.602c0 5.962 4.858 10.834 10.802 10.834h14.957l1.918-12.757h8.437l-3.9-14.68H6.393Z"/>
  <path class="hat" d="M43.465 0H0v6.41h43.465V0Z"/>
  <rect class="line" width="6.3" height="36" x="7" y="9" />
  <rect class="line" width="6.3" height="36" x="19" y="9" />
  <rect class="line" width="6.3" height="36" x="31" y="9" />
<!--   <path class="line" d="M24.9282 9.56303H18.5364V45.6476H24.9282V9.56303Z" fill="white"/>
  <path class="line" d="M13.359 9.56303H6.96716V45.6476H13.359V9.56303Z" fill="white"/>
  <path class="line" d="M36.4336 9.56303H30.0417V45.6476H36.4336V9.56303Z" fill="white"/> -->
  <path class="rest-of-logo" d="M64.11 25.32h6.2v1.347h-7.925V9.615h1.725V25.32Z"/>
  <path class="rest-of-logo" d="M74.273 10.961v6.41h6.648v1.347h-6.648v6.474h7.351v1.41h-9.076V9.616h9.076v1.346h-7.35Z"/>
  <path class="rest-of-logo" d="M97.156 10.897c1.343.962 2.237 2.308 2.749 3.91h-1.79a5.766 5.766 0 0 0-2.173-2.756c-1.023-.705-2.237-1.09-3.643-1.09-1.215 0-2.302.321-3.324.898-.96.577-1.79 1.41-2.301 2.5-.576 1.09-.831 2.308-.831 3.782 0 1.474.255 2.756.83 3.846.576 1.09 1.343 1.923 2.366 2.5a6.922 6.922 0 0 0 3.451.898c1.15 0 2.174-.257 3.132-.77a5.79 5.79 0 0 0 2.301-2.18 7.31 7.31 0 0 0 1.023-3.396h-7.031v-1.283h8.437v1.475c-.128 1.474-.511 2.756-1.214 3.91-.703 1.154-1.662 2.051-2.813 2.756a8.346 8.346 0 0 1-4.026 1.026 8.678 8.678 0 0 1-4.283-1.09c-1.278-.705-2.237-1.73-2.94-3.077-.703-1.346-1.023-2.82-1.023-4.487 0-1.666.32-3.205 1.023-4.487.703-1.346 1.662-2.372 2.876-3.077 1.215-.705 2.685-1.09 4.282-1.09 1.918-.128 3.58.32 4.922 1.282Z"/>
  <path class="rest-of-logo" d="M113.264 22.5h-7.734l-1.534 4.167h-1.79L108.47 10h1.917l6.264 16.667h-1.853l-1.534-4.167Zm-.512-1.346-3.323-9.167-3.452 9.167h6.775Z"/>
  <path class="rest-of-logo" d="M120.678 25.32h6.2v1.347h-7.862V9.615h1.726V25.32h-.064Z"/>
  <path class="rest-of-logo" d="M72.74 42.5c.639.77.958 1.667.958 2.756 0 1.347-.447 2.5-1.406 3.334-.959.833-2.301 1.282-4.027 1.282h-5.88V32.82H68.2c1.726 0 3.004.384 3.835 1.153.831.77 1.279 1.795 1.279 3.077 0 1.09-.32 1.987-.895 2.693-.576.64-1.343 1.09-2.301 1.346 1.15.128 1.981.64 2.62 1.41Zm-8.63-2.115h3.9c1.214 0 2.109-.257 2.684-.834.64-.577.959-1.346.959-2.307 0-.962-.32-1.731-.895-2.244-.64-.577-1.534-.833-2.813-.833H64.11v6.218Zm6.84 7.115c.703-.577 1.086-1.41 1.086-2.436s-.383-1.859-1.086-2.436c-.704-.577-1.726-.897-3.005-.897H64.11v6.666h3.9c1.278 0 2.236-.32 2.94-.897Z"/>
  <path class="rest-of-logo" d="m85.779 49.808-4.666-7.116h-2.749v7.116h-1.726V32.82h5.178c1.917 0 3.324.448 4.282 1.346.96.897 1.407 2.115 1.407 3.654 0 1.41-.384 2.564-1.215 3.397-.767.833-1.917 1.346-3.452 1.474l4.794 7.18H85.78v-.064Zm-7.415-8.334h3.388c2.748 0 4.09-1.153 4.09-3.525 0-2.436-1.342-3.654-4.09-3.654h-3.388v7.18Z"/>
  <path class="rest-of-logo" d="M100.16 45.705h-7.734l-1.534 4.167h-1.79l6.264-16.667h1.918l6.264 16.667h-1.854l-1.534-4.167Zm-.51-1.346-3.325-9.167-3.387 9.167h6.711Z"/>
  <path class="rest-of-logo" d="M107.575 32.82v17.052h-1.726V32.82h1.726Z"/>
  <path class="rest-of-logo" d="M123.938 49.808h-1.726l-9.268-14.231v14.23h-1.726V32.822h1.726l9.268 14.23v-14.23h1.726v16.987Z"/>
  <path class="rest-of-logo" d="M137.425 47.692c-.384.705-.895 1.218-1.662 1.667-.767.449-1.726.641-2.812.641-1.087 0-2.046-.192-2.941-.577a5.232 5.232 0 0 1-2.045-1.667c-.511-.705-.831-1.474-.895-2.371h1.79c.064.512.255 1.025.575 1.474.32.513.767.897 1.342 1.218.576.32 1.279.513 2.11.513 1.086 0 1.917-.32 2.492-.898.576-.577.831-1.282.831-2.18 0-.768-.191-1.345-.575-1.858-.383-.449-.831-.834-1.406-1.09-.575-.256-1.342-.513-2.301-.833-1.087-.32-1.918-.641-2.557-.962a4.371 4.371 0 0 1-1.662-1.41c-.447-.641-.703-1.41-.703-2.436 0-1.282.448-2.308 1.342-3.14.895-.834 2.11-1.219 3.708-1.219 1.598 0 2.876.385 3.835 1.154.959.77 1.47 1.795 1.662 2.949h-1.79c-.128-.706-.511-1.346-1.151-1.923-.639-.577-1.47-.834-2.556-.834-1.023 0-1.79.257-2.365.77-.576.512-.895 1.217-.895 2.179 0 .705.192 1.282.575 1.795.384.449.831.77 1.342 1.025.512.257 1.279.513 2.174.834 1.086.32 1.917.64 2.62.961.639.32 1.215.834 1.726 1.475.447.64.703 1.474.703 2.564.064.77-.128 1.474-.511 2.18Z"/>
</svg>
